assets/macos.svg

<svg width="100%" height="100%" viewBox="0 0 1000 1000" xmlns="http://www.w3.org/2000/svg">
    <g transform="matrix(33.3345,0,0,33.3345,99.5209,100.02)">
        <path d="M21.57,8C19.921,8.956 18.902,10.723 18.902,12.629C18.902,14.825 20.255,16.808 22.3,17.61C21.445,19.813 20.073,21.778 18.3,23.34C17.456,24.036 16.272,24.162 15.3,23.66C13.56,22.75 11.48,22.75 9.74,23.66C8.512,24.291 7.001,24.02 6.07,23C4.609,21.6 3.478,19.892 2.76,18C1.727,15.674 1.461,13.078 2,10.59C2.584,7.972 4.767,5.994 7.43,5.67C8.303,5.608 9.178,5.744 9.99,6.07C11.513,6.719 13.237,6.719 14.76,6.07C17.193,5.043 20.037,5.849 21.57,8Z" style="fill-rule:nonzero;"/>
        <path d="M16.5,0C16.821,2.79 14.855,5.37 12.08,5.8C11.65,5.8 11.6,5.62 11.6,5.3C11.61,3.851 12.235,2.472 13.32,1.51C14.173,0.654 15.297,0.12 16.5,0Z" style="fill-rule:nonzero;"/>
     </g>
</svg>

<svg id="Ebene_1" data-name="Ebene 1" xmlns="http://www.w3.org/2000/svg" viewBox="0 0 24 24">
  <title>AppleIcon24x24</title>
  <g id="IJl5xC.tif">
    <g>
      <path d="M21.57,8a5.35,5.35,0,0,0,.73,9.61,14.76,14.76,0,0,1-4,5.73,2.74,2.74,0,0,1-3,.32,6,6,0,0,0-5.56,0A3.07,3.07,0,0,1,6.07,23a13.62,13.62,0,0,1-3.31-5A12,12,0,0,1,2,10.59,6.35,6.35,0,0,1,7.43,5.67a5.77,5.77,0,0,1,2.56.4,6.08,6.08,0,0,0,4.77,0A5.66,5.66,0,0,1,21.57,8Z"/>
      <path d="M16.5,0A5.26,5.26,0,0,1,12.08,5.8c-.43,0-.48-.18-.48-.5a5.11,5.11,0,0,1,1.72-3.79A5.22,5.22,0,0,1,16.5,0Z"/>
    </g>
  </g>
</svg>
